X:52
T:A North Highland Reel
O:england
S:Alexander Mackay, A collection of Reels...
B:NLS Glen.344
N:Mc16 in Gore's Scottish Fiddle Music Index
N:Gore guesses 1802, a note (by Murdoch Henderson?)
N:on the titlepage says there's an 1832 watermark.
M:C|
L:1/8
K:G
b|g2     dg  egfa|gedB       gddb|g/g/g (dg) egfa|gedB G2G:|
B|G/G/G (BG) AEEA|G/G/G (BG) AGBG|cABG       AEEa|gedB G2G:|


